X: 10962
Q: "Dolce."
U: p=!crescendo(!
U: P=!crescendo)!
U: Q=!diminuendo(!
U: q=!diminuendo)!
M: 3/8
L: 1/16
K: G
[|"^8va   _   _   _   _   _   _   _"\
d2(dedc) | d2"_>"g4 | B2(BcB^A) | B2"_>"d4 |\
(pGABcdPe) | e4F2 | (Q^cdedq=cA) | G2D4 |\
d2(ded^c) | d2"_>"g4 | B2(BcB^A) | B2"_>"d4 |\
(pGABcdPe) | e4F2 |  (^cded=cA) | G4 |]
|: "^loco."dd |\
!f!("_>"^c2d2)dd | ("_>"^c2d2)dd | ("_>"^c2d2)dd | (B2c2)cc |\
(B2c2)cc | (B2c2)cc | (B2c2)cc | B4 ::\
e2e2e2 | (e4d2) | c2c2c2 | (c4B2) |\


